Oxford/img/camp/Cube.svg

<svg width="321" height="456" fill="none" xmlns="http://www.w3.org/2000/svg"><circle cx="254.5" cy="79.5" r="11.5" stroke="#CD142B" stroke-opacity=".53" stroke-width="2"/><circle cx="209.026" cy="113.027" r="5.921" transform="rotate(-165 209.026 113.027)" stroke="#00237C" stroke-opacity=".54" stroke-width="2"/><path fill-rule="evenodd" clip-rule="evenodd" d="M270 440.5l15.5-15.5 15.5 15.5-15.5 15.5-15.5-15.5z" fill="#FF9B21" fill-opacity=".68"/><path fill-rule="evenodd" clip-rule="evenodd" d="M286 139.5l17.5-17.5 17.5 17.5-17.5 17.5-17.5-17.5z" fill="#2B44FF"/><circle cx="199.5" cy="280.5" r="121.5" fill="#00237C"/><circle cx="198" cy="279" r="100" stroke="#fff" stroke-width="6" stroke-dasharray="15 15"/><g clip-path="url(#clip0)"><path d="M271.011 264.809l-17.208 64.22a8.551 8.551 0 01-6.71 6.195l-57.661 10.643a8.557 8.557 0 01-7.114-1.907l-44.617-38.048a8.55 8.55 0 01-2.714-8.72l17.207-64.22a8.52 8.52 0 012.598-4.191 8.498 8.498 0 014.114-2.003l57.663-10.644a8.565 8.565 0 017.114 1.906l44.616 38.05a8.493 8.493 0 012.559 3.79 8.527 8.527 0 01.153 4.929z" fill="#E53935"/><path d="M270.858 259.881a8.482 8.482 0 00-2.559-3.791l-44.615-38.05a8.568 8.568 0 00-7.114-1.906l-.397.073 44.309 37.788a8.488 8.488 0 012.559 3.791 8.518 8.518 0 01.154 4.929l-17.208 64.22a8.55 8.55 0 01-6.71 6.194l-57.265 10.57.307.262a8.545 8.545 0 003.34 1.757 8.572 8.572 0 003.774.149l57.661-10.643a8.551 8.551 0 006.71-6.195l17.208-64.22a8.515 8.515 0 00-.154-4.928z" fill="#D32F2F"/><path d="M205.421 271.96l-19.763 73.757a8.512 8.512 0 01-3.34-1.757L137.7 305.912a8.554 8.554 0 01-2.714-8.72l17.208-64.22a8.52 8.52 0 012.598-4.191l50.629 43.179z" fill="#F44336"/><path d="M271.011 264.809l-17.209 64.222a8.557 8.557 0 01-6.612 6.176l-.096.018-57.662 10.642a8.556 8.556 0 01-3.774-.15l19.763-73.757 65.436-12.08a8.527 8.527 0 01.154 4.929z" fill="#D32F2F"/><path d="M270.857 259.88l-7.41 1.368c-.043.49-.123.981-.254 1.466l-17.208 64.222a8.557 8.557 0 01-6.612 6.176l-.096.019-52.861 9.755-.758 2.831a8.556 8.556 0 003.774.15l57.662-10.642.096-.018a8.557 8.557 0 006.612-6.176l17.209-64.222a8.527 8.527 0 00-.154-4.929z" fill="#C62828"/><path d="M238.131 304.827c1.492-3.566.57-7.347-2.058-8.446-2.628-1.1-5.967.899-7.459 4.464-1.491 3.566-.57 7.347 2.059 8.446 2.628 1.1 5.967-.899 7.458-4.464zm-53.567-19.555c2.775.582 5.668-2.014 6.462-5.798.794-3.784-.812-7.323-3.587-7.906-2.775-.582-5.669 2.014-6.462 5.798-.794 3.784.812 7.324 3.587 7.906zm-34.938 16.932c2.775.583 5.669-2.013 6.463-5.797.793-3.784-.813-7.324-3.588-7.906-2.775-.582-5.668 2.013-6.462 5.798-.794 3.784.812 7.323 3.587 7.905zm38.641-60.976c3.784.794 7.324-.812 7.906-3.587.582-2.775-2.014-5.668-5.798-6.462-3.784-.794-7.324.812-7.906 3.587-.582 2.775 2.014 5.668 5.798 6.462zm26.513-5.309c3.785.794 7.324-.812 7.906-3.587.583-2.775-2.013-5.668-5.797-6.462-3.784-.794-7.324.812-7.906 3.587-.582 2.775 2.013 5.668 5.797 6.462zm21.207 18.957c3.785.794 7.324-.812 7.906-3.588.583-2.775-2.013-5.668-5.797-6.462-3.784-.794-7.324.812-7.906 3.587-.582 2.776 2.013 5.669 5.797 6.463zm-25.742 4.63c3.784.793 7.324-.813 7.906-3.588.582-2.775-2.013-5.668-5.797-6.462-3.784-.794-7.324.812-7.906 3.587-.582 2.775 2.013 5.669 5.797 6.463z" fill="#F1F1F1"/></g><path d="M167.958 39.94c-.972-22.125-19.745-36.256-43.876-35.634-24.131.62-41.138 22.342-35.51 43.977 5.63 21.635 20.947 36.383 43.877 35.634 22.931-.749 36.481-21.853 35.509-43.977z" fill="#CD142B" fill-opacity=".53"/><path d="M37.313 261.665c-1.073-10.208-9.77-16.834-19.531-15.808-9.761 1.026-17.971 10.641-15.817 19.524 2.153 8.882 9.002 18.289 19.53 15.808 10.529-2.481 16.891-9.315 15.818-19.524z" fill="#00237C"/><defs><clipPath id="clip0"><path fill="#fff" transform="rotate(15 -677.746 690.508)" d="M0 0h134v134H0z"/></clipPath></defs></svg>

<svg width="321" height="456" viewBox="0 0 321 456" fill="none" xmlns="http://www.w3.org/2000/svg">
<circle cx="254.5" cy="79.5" r="11.5" stroke="#CD142B" stroke-opacity="0.53" stroke-width="2"/>
<circle cx="209.026" cy="113.027" r="5.92099" transform="rotate(-165 209.026 113.027)" stroke="#00237C" stroke-opacity="0.54" stroke-width="2"/>
<path fill-rule="evenodd" clip-rule="evenodd" d="M270 440.5L285.5 425L301 440.5L285.5 456L270 440.5Z" fill="#FF9B21" fill-opacity="0.68"/>
<path fill-rule="evenodd" clip-rule="evenodd" d="M286 139.5L303.5 122L321 139.5L303.5 157L286 139.5Z" fill="#2B44FF"/>
<circle cx="199.5" cy="280.5" r="121.5" fill="#00237C"/>
<circle cx="198" cy="279" r="100" stroke="white" stroke-width="6" stroke-dasharray="15 15"/>
<g clip-path="url(#clip0)">
<path d="M271.011 264.809L253.803 329.029C252.95 332.214 250.339 334.625 247.093 335.224L189.432 345.867C188.164 346.102 186.874 346.043 185.658 345.717C184.443 345.392 183.298 344.799 182.318 343.96L137.701 305.912C135.189 303.77 134.133 300.378 134.987 297.192L152.194 232.972C152.638 231.317 153.554 229.872 154.792 228.781C155.931 227.77 157.347 227.063 158.906 226.778L216.569 216.134C219.105 215.665 221.718 216.365 223.683 218.04L268.299 256.09C269.507 257.116 270.376 258.435 270.858 259.88C271.384 261.444 271.454 263.154 271.011 264.809Z" fill="#E53935"/>
<path d="M270.858 259.881C270.377 258.435 269.507 257.116 268.299 256.09L223.684 218.04C221.719 216.366 219.106 215.665 216.57 216.134L216.173 216.207L260.482 253.995C261.69 255.021 262.56 256.341 263.041 257.786C263.568 259.349 263.638 261.059 263.195 262.715L245.987 326.935C245.134 330.12 242.523 332.53 239.277 333.129L182.012 343.699L182.319 343.961C183.299 344.799 184.444 345.392 185.659 345.718C186.875 346.043 188.165 346.102 189.433 345.867L247.094 335.224C250.34 334.625 252.951 332.214 253.804 329.029L271.012 264.809C271.455 263.154 271.385 261.444 270.858 259.881Z" fill="#D32F2F"/>
<path d="M205.421 271.96L185.658 345.717C184.442 345.392 183.298 344.799 182.318 343.96L137.7 305.912C135.189 303.77 134.133 300.377 134.986 297.192L152.194 232.972C152.638 231.317 153.554 229.872 154.792 228.781L205.421 271.96Z" fill="#F44336"/>
<path d="M271.011 264.809L253.802 329.031C252.958 332.181 250.39 334.577 247.19 335.207C247.159 335.213 247.125 335.219 247.094 335.225L189.432 345.867C188.163 346.102 186.873 346.043 185.658 345.717L205.421 271.96L270.857 259.88C271.383 261.444 271.454 263.154 271.011 264.809Z" fill="#D32F2F"/>
<path d="M270.857 259.88L263.447 261.248C263.404 261.738 263.324 262.229 263.193 262.714L245.985 326.936C245.141 330.086 242.573 332.482 239.373 333.112C239.342 333.119 239.308 333.124 239.277 333.131L186.416 342.886L185.658 345.717C186.873 346.043 188.163 346.102 189.432 345.867L247.094 335.225C247.125 335.219 247.159 335.213 247.19 335.207C250.39 334.577 252.958 332.181 253.802 329.031L271.011 264.809C271.454 263.154 271.383 261.444 270.857 259.88Z" fill="#C62828"/>
<path d="M238.131 304.827C239.623 301.261 238.701 297.48 236.073 296.381C233.445 295.281 230.106 297.28 228.614 300.845C227.123 304.411 228.044 308.192 230.673 309.291C233.301 310.391 236.64 308.392 238.131 304.827Z" fill="#F1F1F1"/>
<path d="M184.564 285.272C187.339 285.854 190.232 283.258 191.026 279.474C191.82 275.69 190.214 272.151 187.439 271.568C184.664 270.986 181.77 273.582 180.977 277.366C180.183 281.15 181.789 284.69 184.564 285.272Z" fill="#F1F1F1"/>
<path d="M149.626 302.204C152.401 302.787 155.295 300.191 156.089 296.407C156.882 292.623 155.276 289.083 152.501 288.501C149.726 287.919 146.833 290.514 146.039 294.299C145.245 298.083 146.851 301.622 149.626 302.204Z" fill="#F1F1F1"/>
<path d="M188.267 241.228C192.051 242.022 195.591 240.416 196.173 237.641C196.755 234.866 194.159 231.973 190.375 231.179C186.591 230.385 183.051 231.991 182.469 234.766C181.887 237.541 184.483 240.434 188.267 241.228Z" fill="#F1F1F1"/>
<path d="M214.78 235.919C218.565 236.713 222.104 235.107 222.686 232.332C223.269 229.557 220.673 226.664 216.889 225.87C213.105 225.076 209.565 226.682 208.983 229.457C208.401 232.232 210.996 235.125 214.78 235.919Z" fill="#F1F1F1"/>
<path d="M235.987 254.876C239.772 255.67 243.311 254.064 243.893 251.288C244.476 248.513 241.88 245.62 238.096 244.826C234.312 244.032 230.772 245.638 230.19 248.413C229.608 251.189 232.203 254.082 235.987 254.876Z" fill="#F1F1F1"/>
<path d="M210.245 259.506C214.029 260.299 217.569 258.693 218.151 255.918C218.733 253.143 216.138 250.25 212.354 249.456C208.57 248.662 205.03 250.268 204.448 253.043C203.866 255.818 206.461 258.712 210.245 259.506Z" fill="#F1F1F1"/>
</g>
<path d="M167.958 39.9395C166.986 17.8147 148.213 3.68433 124.082 4.30561C99.9505 4.9269 82.9437 26.6479 88.5729 48.2832C94.2021 69.9185 109.519 84.6661 132.449 83.9171C155.38 83.1682 168.93 62.0642 167.958 39.9395Z" fill="#CD142B" fill-opacity="0.53"/>
<path d="M37.313 261.665C36.2401 251.457 27.5432 244.831 17.782 245.857C8.0208 246.883 -0.189365 256.498 1.96452 265.381C4.1184 274.263 10.9673 283.67 21.4955 281.189C32.0238 278.708 38.386 271.874 37.313 261.665Z" fill="#00237C"/>
<defs>
<clipPath id="clip0">
<rect width="134" height="134" fill="white" transform="translate(155.623 198.942) rotate(15)"/>
</clipPath>
</defs>
</svg>
